X:1
T:Some Little Bug is Going To Find You
T:Some Little Bug Is Going To Find You
T:Music by Silvio Hein. 
T:           Words by Benjamin Hapgood Burt. and Roy Atwell. 
T:(Food Song.)
T:Copright MCMXV by T. B Harms &amp; Francis, Day &amp; Hunter, N. Y.
T:Copright MCMXV by T. B Harms &amp; Francis, Day &amp; Hunter, N. Y.
T:Copright MCMXV by T. B Harms &amp; Francis, Day &amp; Hunter, N. Y.
C:Silvio Hein
Z:Benjamin Hapgood Burt and Roy Atwell
Z:Copright MCMXV by T. B Harms & Francis, Day & Hunter, N. Y.
%%score 1 { ( 2 4 ) | ( 3 5 ) }
L:1/8
Q:1/4=144
M:4/4
K:A
V:1 treble nm="Voice"
V:2 treble nm="Piano"
V:4 treble 
V:3 treble 
V:5 treble 
V:1
"^Molto Allegro." z2 | z8 | z8 | z8 | z4 z2[Q:1/4=114]"^Moderato." E F | E F E F E d c B | %6
w: ||||It is|of- ten times a quest- ion in this|
w: ||||The in-|vi- ting green cu- cum- ber, gets most|
 A B A B A B A F | G B F A G B F G | F4- F2 c c | B c B A G B B B | A B A E G B e c | %11
w: age of in- di- gest- ion, As to|what to eat and what to leave a-|lone; _ For each|mi- crobe and Ba- cil- lus has a|diff- 'rent way to kill us; And in|
w: ev- 'ry bo- dy's num- ber; And the|green corn has a sys- tem of it's|own. _ While the|ra- dish and the cab- bage of- ten|make un- pleas- ant bag- gage, And may|
 F G A c G F B G | E4- E2 E F | E F E F E d c B | A B A B (A B) A F | G B F A G B F G | %16
w: time they al- ways claim us for their|own. _ There are|germs in ev- 'ry kind in a- ny|food that you can find, _ In the|mar- ket or up- on the bill of|
w: in- tro- duce the doc- tor in your|home. _ Eat- ing|lob- ster, cooked or plain is on- ly|flirt- ing with to- maine, _ And an|oys- ter some- times has a lot to|
 F4- F2 c c | e F ^E F e d d d | c G A B B A E F | G e ^d c A c G F | %20
w: fare; _ Drink- ing|wa- ter's just as ris- ky as the|so- called dead- ly whis- key, And it's|of- ten a mis- take to breathe the|
w: say; _ But the|clams we eat in chow- der make the|an- gels sing the loud- er: For they|know that we'll be with them righ a-|
 B4- B z/ c/"^Refrain." e3/2 c/ || F3/2 c/ e3/2 d/ G2 c2 | B z B2- B3/2 G/ B3/2 G/ | %23
w: air. _ Some lit- tle|Bug is going to find you|some- day! _ Some lit- tle|
w: way. _ _ _ _|_ _ _ _ _ _||
 F3/2 A/ B3/2 G/ F2 c2 | F z F4 E F | A3/2 B/ A3/2 B/ A3/2 F/ F3/2 F/ | %26
w: Bug will sneak be- hind you|some- day! Then he'll|send for his bug friends and all your|
w: |||
 c3/2 d/ c3/2 d/ c3/2 c/ B3/2 A/ | E3/2 F/ A3/2 c/ F2 c2 |{Bc} B4 A2 z2 |] %29
w: earth- ly trou- ble ends. Some lit- tle|bug is going to find you|some- day.|
w: |||
V:2
 e'f' | e'f'e'f' e'd'c'g | efef edBG | EFEF E2 ^B2 | [G^Be]2 z2 z2!p! EF | EFEF EdcB | ABAB ABAF | %7
 GBFA GBFG | FG[Ac]f f2 cc | BcBA GBBB | ABAE GBec | FGAc GFBG | EFEF E2 EF | EFEF EdcB | %14
 ABAB ABAF | GBFA GBFG | FA[Ac]f f2 cc | [F^Ae]F^EF eddd | cGAB BA^EF | Ge^dc =AcGF | %20
 [=D=FAB]4 [DE^GB] z/ c<ec/ || [A,DF]>c!arpeggio![FAe]>d [DEG]2 [EGc]2 | %22
 [CEB] z [CEB]2- [CEB]>GB>G | F>A B>G F2 c2 | [A,CF] z [A,CF]2 [Acf]2 EF | A>B A>B A>F F>F | %26
 c>d c>d c>c B>A | E>F A>c F2 c2 | [DB]4 [CEA]2 [Acea]2 |] %29
V:3
!f! z2 | [de]4- [de]4 | [DE]4- [DE]4 |[K:bass] E,4- E,4 | [DE]2 !>!E,2 !>!E,,2 z2 | %5
 B,,2 E,2 E,,2 E,2 | A,,2 E,2 E,,2 =C,2 | B,,2 E,2 E,,2 E,2 | z2 C2 [A,E]2 z2 | F,2 B,2 E,2 B,2 | %10
 F,4 [B,,G,]2 [B,,=G,]2 | [B,,F,A,]4 [B,,F,A,]4 | E,2 F,2 G,2 z2 | B,,2 E,2 E,,2 E,2 | %14
 A,,2 E,2 E,,2 =C,2 | B,,2 E,2 E,,2 E,2 | z2 E2 [A,E]2 z2 | !arpeggio![F,,C,^A,]F,^G,^A, B,2 =A,2 | %18
 [G,B,]4 F,2 F,2 | B,,2 =G,2 F,2 B,,2 | [E,,E,]4 !arpeggio![E,,B,,^G,] z/ C<EC/ || %21
 C,2 [F,A,D]2 E,,2 [F,A,D]2 | A,,>C,E,>F, E,>G,B,>G, | C,2 E,2 B,,2 E,2 | A,,2 E,2 E2 z2 | %25
 E,2 [G,A,]2 D,2 [F,A,]2 | G,2 C2 F,2 [B,,A,]2 | E,>F, A,>C x4 | E,4 A,2 [A,,,A,,]2 |] %29
V:4
 x2 | [gd']4- [gd']4 | [Gd]4- [Gd]4 | [G,D]4- [G,D]4 | x8 | [G,D]2 [G,D]2 [G,D][FG][EG][DG] | %6
 [CE]2 [CE]2 [CE]2 [A,^D]2 | [=DE]2 D2 [DE]2 D2 | [A,C]4 [Ac]2 x2 | [^DA]2 [DA]2 E2 [EG]2 | %10
 [CE]4 E2 E2 | C4 ^D4 | [G,B,]2 [A,=C]2 [B,D]2 x2 | [G,D]2 [G,D]2 [G,D][FG][EG][EG] | %14
 [CE]2 [CE]2 [CE]2 [A,^D]2 | [=DE]2 D2 [DE]2 D2 | [A,C]4 [Ac]2 x2 | x4 [FB]2 [FB]2 | %18
 ^E4 [CF]2 =C2 | [B,E]2 [E^A]2 [CE]2 [=A,^D]2 | x8 || x8 | x8 | [A,D]2 [DG]2 [A,D]2 [EG]2 | x8 | %25
 [C=G]2 [CG]2 [DF]2 D2 | [^EB]2 [EB]2 [FA]2 [^DF]2 | C4 [A,D]4 | F2 G2 x4 |] %29
V:5
 x2 | x8 | x8 |[K:bass] x8 | x8 | x8 | x8 | x8 | A,,4 x4 | x8 | x8 | x8 | x8 | x8 | x8 | x8 | %16
 A,,4 x4 | x8 | x8 | x8 | x8 || x8 | x8 | x8 | x8 | x8 | x8 | A,,4 B,,4 | x8 |] %29

